images/logos-svg/deepseek.svg

<svg fill="none" height="50" viewBox="0 0 50 50" width="50" xmlns="http://www.w3.org/2000/svg"><path d="m48.8354 10.0479c-.5122-.25591-.7329.2319-1.0322.4799-.1025.0801-.1889.1841-.2759.2798-.748.8164-1.6225 1.3521-2.7651 1.2881-1.6699-.0957-3.0962.4399-4.3564 1.7441-.2681-1.6079-1.1582-2.5678-2.5132-3.184-.709-.3199-1.4258-.6402-1.9224-1.33598-.3467-.49609-.4409-1.04785-.6142-1.59228-.1104-.32764-.2207-.66358-.5909-.71973-.4018-.06396-.5595.27979-.7172.56787-.6299 1.17627-.8746 2.47222-.8506 3.78422.0551 2.9521 1.2763 5.3042 3.7026 6.976.2759.1919.3467.3838.2598.6641-.1651.5757-.3623 1.1357-.5357 1.7119-.1103.3682-.2754.4478-.6616.2881-1.3315-.5679-2.4814-1.4082-3.498-2.4243-1.7251-1.7036-3.2852-3.584-5.231-5.0557-.457-.3442-.9141-.664-1.3867-.9682-1.9849-1.9678.2602-3.58403.7803-3.77592.5434-.2002.1889-.88818-1.5679-.87988-1.7569.00781-3.3638.60791-5.4121 1.40771-.2993.12012-.6148.20801-.9375.28027-1.8594-.36035-3.7896-.44043-5.8062-.208-3.79734.43164-6.83055 2.26362-9.06004 5.39212-2.67871 3.7597-3.30908 8.0317-2.53662 12.4878.81104 4.6962 3.15918 8.5839 6.76709 11.624 3.74217 3.1523 8.05177 4.6963 12.96727 4.4004 2.9859-.1763 6.3106-.584 10.0606-3.8242.9453.4799 1.938.6718 3.5844.8159 1.2686.1201 2.4898-.064 3.4351-.2642 1.481-.3198 1.3784-1.7197.8428-1.9756-4.3409-2.0644-3.3877-1.2241-4.2539-1.9043 2.2055-2.664 5.5302-5.4321 6.83-14.3999.1026-.7119.0157-1.1601 0-1.7363-.0078-.3521.0708-.4878.4649-.5278 1.0874-.128 2.143-.4322 3.1118-.9761 2.8125-1.5679 3.9473-4.144 4.2148-7.2319.0396-.4722-.0078-.96-.4961-1.208zm-24.5092 27.7919c-4.2066-3.3759-6.2471-4.4877-7.0904-4.4399-.7876.0483-.646.9683-.4726 1.5679.1811.5923.418 1.0005.7485 1.52.2285.3442.3862.8564-.2285 1.2402-1.355.856-3.7104-.2881-3.8208-.3442-2.7417-1.648-5.03418-3.8237-6.64892-6.7998-1.56006-2.8643-2.46582-5.9361-2.61573-9.2163-.03955-.792.18897-1.0718.96094-1.2158 1.0166-.1919 2.06445-.232 3.08057-.0801 4.29344.6401 7.94924 2.6001 11.01364 5.7041 1.7491 1.768 3.0723 3.8799 4.4356 5.9443 1.4492 2.1919 3.0093 4.2798 4.9946 5.9917.7012.6001 1.2603 1.0562 1.7959 1.3921-1.6147.1841-4.3091.2241-6.1528-1.2642zm2.0171-13.2397c0-.3521.2758-.6323.6225-.6323.0786 0 .1494.0161.2124.04.0869.0322.1656.0801.2285.1524.1104.1118.1734.2719.1734.4399 0 .352-.2759.6318-.6226.6318s-.6142-.2798-.6142-.6318zm6.2631 3.2798c-.4018.168-.8037.312-1.1899.3281-.5986.0317-1.2524-.2158-1.6069-.52-.5513-.4722-.9453-.7359-1.1109-1.5601-.0708-.352-.0312-.896.0318-1.208.1416-.6719-.0161-1.104-.481-1.4961-.3779-.3198-.8584-.4077-1.3862-.4077-.1973 0-.3784-.0884-.5122-.1601-.2207-.1119-.4019-.3921-.2285-.7359.0551-.1123.3232-.3843.3862-.4321.7168-.416 1.5439-.2803 2.3081.0317.709.2964 1.2446.8404 2.0171 1.6084.7876.9278.9292 1.1836 1.3784 1.8799.3545.544.6777 1.104.898 1.7441.1342.4-.0391.7281-.504.9278z" fill="#4d6bfe"/></svg>

<svg width="50.000000" height="50.000000" viewBox="0 0 50 50" fill="none" xmlns="http://www.w3.org/2000/svg"
	xmlns:xlink="http://www.w3.org/1999/xlink">
	<path id="path"
		d="M48.8354 10.0479C48.3232 9.79199 48.1025 10.2798 47.8032 10.5278C47.7007 10.6079 47.6143 10.7119 47.5273 10.8076C46.7793 11.624 45.9048 12.1597 44.7622 12.0957C43.0923 12 41.666 12.5356 40.4058 13.8398C40.1377 12.2319 39.2476 11.272 37.8926 10.6558C37.1836 10.3359 36.4668 10.0156 35.9702 9.31982C35.6235 8.82373 35.5293 8.27197 35.356 7.72754C35.2456 7.3999 35.1353 7.06396 34.7651 7.00781C34.3633 6.94385 34.2056 7.2876 34.0479 7.57568C33.418 8.75195 33.1733 10.0479 33.1973 11.3599C33.2524 14.312 34.4736 16.6641 36.8999 18.3359C37.1758 18.5278 37.2466 18.7197 37.1597 19C36.9946 19.5757 36.7974 20.1357 36.624 20.7119C36.5137 21.0801 36.3486 21.1597 35.9624 21C34.6309 20.4321 33.481 19.5918 32.4644 18.5757C30.7393 16.8721 29.1792 14.9917 27.2334 13.52C26.7764 13.1758 26.3193 12.856 25.8467 12.5518C23.8618 10.584 26.1069 8.96777 26.627 8.77588C27.1704 8.57568 26.8159 7.8877 25.0591 7.896C23.3022 7.90381 21.6953 8.50391 19.647 9.30371C19.3477 9.42383 19.0322 9.51172 18.7095 9.58398C16.8501 9.22363 14.9199 9.14355 12.9033 9.37598C9.10596 9.80762 6.07275 11.6396 3.84326 14.7681C1.16455 18.5278 0.53418 22.7998 1.30664 27.2559C2.11768 31.9521 4.46582 35.8398 8.07373 38.8799C11.8159 42.0322 16.1255 43.5762 21.041 43.2803C24.0269 43.104 27.3516 42.6963 31.1016 39.4561C32.0469 39.936 33.0396 40.1279 34.686 40.272C35.9546 40.3921 37.1758 40.208 38.1211 40.0078C39.6021 39.688 39.4995 38.2881 38.9639 38.0322C34.623 35.9678 35.5762 36.8081 34.71 36.1279C36.9155 33.4639 40.2402 30.6958 41.54 21.728C41.6426 21.0161 41.5557 20.5679 41.54 19.9917C41.5322 19.6396 41.6108 19.5039 42.0049 19.4639C43.0923 19.3359 44.1479 19.0317 45.1167 18.4878C47.9292 16.9199 49.064 14.3438 49.3315 11.2559C49.3711 10.7837 49.3237 10.2959 48.8354 10.0479ZM24.3262 37.8398C20.1196 34.4639 18.0791 33.3521 17.2358 33.3999C16.4482 33.4482 16.5898 34.3682 16.7632 34.9678C16.9443 35.5601 17.1812 35.9683 17.5117 36.4878C17.7402 36.832 17.8979 37.3442 17.2832 37.728C15.9282 38.584 13.5728 37.4399 13.4624 37.3838C10.7207 35.7358 8.42822 33.5601 6.81348 30.584C5.25342 27.7197 4.34766 24.6479 4.19775 21.3677C4.1582 20.5757 4.38672 20.2959 5.15869 20.1519C6.17529 19.96 7.22314 19.9199 8.23926 20.0718C12.5327 20.7119 16.1885 22.6719 19.2529 25.7759C21.002 27.5439 22.3252 29.6558 23.6885 31.7202C25.1377 33.9121 26.6978 36 28.6831 37.7119C29.3843 38.312 29.9434 38.7681 30.479 39.104C28.8643 39.2881 26.1699 39.3281 24.3262 37.8398ZM26.3433 24.6001C26.3433 24.248 26.6191 23.9678 26.9658 23.9678C27.0444 23.9678 27.1152 23.9839 27.1782 24.0078C27.2651 24.04 27.3438 24.0879 27.4067 24.1602C27.5171 24.272 27.5801 24.4321 27.5801 24.6001C27.5801 24.9521 27.3042 25.2319 26.9575 25.2319C26.6108 25.2319 26.3433 24.9521 26.3433 24.6001ZM32.6064 27.8799C32.2046 28.0479 31.8027 28.1919 31.4165 28.208C30.8179 28.2397 30.1641 27.9922 29.8096 27.688C29.2583 27.2158 28.8643 26.9521 28.6987 26.1279C28.6279 25.7759 28.6675 25.2319 28.7305 24.9199C28.8721 24.248 28.7144 23.8159 28.2495 23.4238C27.8716 23.104 27.3911 23.0161 26.8633 23.0161C26.666 23.0161 26.4849 22.9277 26.3511 22.856C26.1304 22.7441 25.9492 22.4639 26.1226 22.1201C26.1777 22.0078 26.4458 21.7358 26.5088 21.688C27.2256 21.272 28.0527 21.4077 28.8169 21.7197C29.5259 22.0161 30.0615 22.5601 30.834 23.3281C31.6216 24.2559 31.7632 24.5117 32.2124 25.208C32.5669 25.752 32.8901 26.312 33.1104 26.9521C33.2446 27.3521 33.0713 27.6802 32.6064 27.8799Z"
		fill="#4D6BFE" fill-opacity="1.000000" fill-rule="nonzero" />
</svg>
